X: 9450
T: Danse De Campagne
R: reel
M: 4/4
K: Fmajor
f3f f2cc|defd cA F2|g g2 g g2gg|egga gec2|
fz fg ffcc|defd cAFA|BzGB AcFA|1 GFEG F2 de:|2 GFEG F2 FC||
|:FGAB ccAc|defd cA F2|defd cAFA|BAGF GBEG|
FGAB ccAc|defd cA F2|defd cAFA|1 GFEG F2 FC:|2 GFEG F2de||

